X:666
T:Shandon Bells
S:Colin Hume's website,  colinhume.com  - chords can also be printed below the stave.
Q:3/8=120
M:6/8
L:1/8
K:D
P:A
|:B | "D"AFD DFA | "/"ded cBA | "Em"BGE EFG | "A7"B2A Bcd |\
"D"AFD DFA | "/"ded cBA | "G"Bcd "A7"ecA | "D"d3- d2 :|
P:B
|: g | "D"f2d ded | "/"faa afd | "A"cAA eAA | "A7"cBc efg |\
"D"f2d ded | "D"faa afd | "G"Bcd "A7"ecA | "D"d3- d2 :|

